X:1
T:The Judgment Day
T:George Crawford Hugg
T:The Judgment Day
T:Public Domain
T:Public Domain
T:Public Domain
C:George Crawford Hugg
Z:Public Domain
%%score ( 1 2 ) ( 3 4 )
L:1/8
M:4/4
K:G
V:1 treble 
V:2 treble 
V:3 bass 
V:4 bass 
V:1
 E>F | [EG]2 G2 [EG]2 G>G | [^DF]2 E2 [DB]4 | B>c B>A G>F E>F | [EG]2 [^DF]2 E2 E>F | %5
w: 1.~At the|bar of God you will|have to stand,|When the books are o- pened by the|hand; Then for ev- ery|
w: 2.~There you’ll|meet each friend, there you’ll|meet each foe,|Will they bring you plea- sure? Will they|woe? For the way you|
w: 3.~Ev- ery|act of life will be|there made known,|When we see our Sav- ior on the|throne; Ma- ny deeds that|
w: 4.~Ev- ery|hour we spend in the|Mas- ter’s cause|Will be weighed by mer- cy ’gainst His|laws; Ev- ery song we|
w: 5.~Let us|then live close to the|bleed- ing side|Of that pre- cious Sav- ior, who for|died; For if we love|
 [EG]2 G2 [EG]2 G>G | [^DF]2 E2 [DB]4 | [GB]>[Gc] [Gd]>[GB] A>[Ac] [GB]>[EA] | [DG]2 [DF]2 [DG]2 || %9
w: and each word you say,|You will have|an- swer, on the judg- ment day. *||
w: while on earth you stay,|Will con- demn|save you on the judg- ment day. *||
w: we would hide a- way|Will be heard|mill- ions, on the judg- ment day. On|judg- ment day,|
w: ev- ery prayer we pray,|Will be wait-|for us on the judg- ment day. *||
w: and His voice o- bey,|Joy- ful- ly|meet Him, on the judg- ment day. *||
"^Refrain" [GB]>[Gc] | [Gd]2 [Ge]2 [Gd]2 [FB]>[FA] | [EG]2 [EG]2 [^DF]4 | %12
w: |||
w: |||
w: dread- ful|judg- ment day, We shall|meet our Sav-|
w: |||
w: |||
 [CE]>[C^D] [CE]>[=DF] [DG]>[DF] [DG][EA] | [DB]2 [^CB]2 [DA]2 [GB]>[G^c] | %14
w: ||
w: ||
w: ior on the judg- ment day; Then what|will you do? Oh, what|
w: ||
w: ||
 [Gd]2 [Ge]2 [Gd]2 [FB]>[FA] | [EG]2 [EG]2 [^DB]4 | [CE]>[C^D] [CE]>[=DF] [DG]>[DF] [DG][EA] | %17
w: |||
w: |||
w: will you say When you|stand be- fore|Him on the judg- ment day? * *|
w: |||
w: |||
 [DB]2 (DC) [B,G]2 |] %18
w: |
w: |
w: |
w: |
w: |
V:2
 x2 | x8 | x8 | E2 x/ E2 x7/2 | x4 E2 x2 | x8 | x2 E2 x4 | x4 A3/2 x5/2 | x6 || x2 | x8 | x8 | x8 | %13
w: |||Sav- ior’s|thought||to|||||||
w: |||cause you|act,||or|||||||
w: |||judg- ment|here||by|the||||||
w: |||brok- en|sing,||ing|||||||
w: |||us hath|Him||we’ll|||||||
 x8 | x8 | x8 | x8 | x2 A2 x2 |] %18
w: |||||
w: |||||
w: |||||
w: |||||
w: |||||
V:3
 z2 | [E,G,B,]2 z2 [E,G,B,]2 z2 | [B,,F,B,]2 z2 [B,,F,B,]4 | [D,G,B,]2 z2 [E,G,B,]2 z2 | %4
 [E,G,B,]2 [B,,B,]2 [E,G,B,]2 z2 | [E,G,B,]2 z2 [E,G,B,]2 z2 | [B,,F,B,]2 z2 [B,,F,B,]4 | %7
 G,>[G,A,] [G,B,]>[G,E] [C,E]>[A,,E] [B,,D]>[C,C] | [D,B,]2 (A,C) [G,,G,B,]2 || G,>[G,A,] | %10
 [G,B,]2 [G,C]2 [G,B,]2 [D,B,]>[^D,B,] | [E,B,]2 [E,B,]2 [B,,B,]4 | %12
 [C,G,]>[C,F,] [C,G,]>[C,A,] [B,,G,]>[A,,C] [G,,B,][C,A,] | [D,G,]2 [E,G,]2 [D,F,]2 G,>[G,A,] | %14
 [G,B,]2 [G,C]2 [G,B,]2 [D,B,]>[^D,B,] | [E,B,]2 [E,B,]2 [B,,F,B,]4 | %16
 [C,G,]>[C,F,] [C,G,]>[C,A,] [B,,G,]>[A,,C] [G,,B,][C,A,] | [D,G,]2 [D,F,]2 [G,,D,G,]2 |] %18
V:4
 x2 | x8 | x8 | x8 | x8 | x8 | x8 | G,3/2 x13/2 | x2 D,2 x2 || G,3/2 x/ | x8 | x8 | x8 | %13
 x6 G,3/2 x/ | x8 | x8 | x8 | x6 |] %18

